assets/dude/We–Kitty.svg

<svg width="242" height="103" viewBox="0 0 242 103" fill="none" xmlns="http://www.w3.org/2000/svg">
<path d="M146.023 0.73999C137.903 0.73999 135.102 7.59999 130.202 7.59999C125.302 7.59999 126.843 3.54 124.043 3.54C121.243 3.54 122.783 7.59999 117.883 7.59999C112.983 7.59999 110.463 0.73999 102.063 0.73999C101.783 0.73999 100.803 0.73999 100.803 1.99999C100.803 3.25999 103.323 23.28 103.323 35.74C103.323 36.44 103.883 37 104.583 37H119.983C120.543 37 120.823 37.28 120.823 37.56C120.823 37.98 120.403 38.82 120.403 38.82L109.623 62.9C108.923 64.3 108.363 64.72 107.663 64.72H95.2025C94.5025 64.72 93.9425 64.3 93.1025 62.76L82.4625 38.82C82.4625 38.82 82.0425 37.98 82.0425 37.56C82.0425 37.28 82.3225 37 82.8825 37H92.6825C93.3825 37 93.9425 36.44 93.9425 35.74C93.9425 23.28 96.4625 3.25999 96.4625 1.99999C96.4625 0.73999 95.3425 0.73999 95.2025 0.73999C87.0825 0.73999 84.9825 7.59999 80.0825 7.59999C75.1825 7.59999 76.7225 3.54 73.9225 3.54C71.1225 3.54 72.6625 7.59999 67.7625 7.59999C62.8625 7.59999 61.0425 0.73999 52.6425 0.73999C52.3625 0.73999 51.3825 0.73999 51.3825 1.99999C51.3825 3.25999 53.9025 23.28 53.9025 35.74C53.9025 36.44 54.4625 37 55.1625 37H67.0625C67.6225 37 67.9025 37.28 67.9025 37.56C67.9025 37.98 67.4825 38.82 67.4825 38.82L56.7025 62.9C56.0025 64.3 55.4425 64.72 54.7425 64.72H42.2825C41.5825 64.72 41.0225 64.3 40.1825 62.76L29.5425 38.82C29.5425 38.82 29.1225 37.98 29.1225 37.56C29.1225 37.28 29.4025 37 29.9625 37H43.2625C43.9625 37 44.5225 36.44 44.5225 35.74C44.5225 23.28 47.0425 3.25999 47.0425 1.99999C47.0425 0.73999 45.9225 0.73999 45.7825 0.73999C37.6625 0.73999 34.8625 7.59999 29.9625 7.59999C25.0625 7.59999 26.6025 3.54 23.8025 3.54C21.0025 3.54 22.5425 7.59999 17.6425 7.59999C12.7425 7.59999 10.2225 0.73999 1.8225 0.73999C1.5425 0.73999 0.5625 0.73999 0.5625 1.99999C0.5625 3.25999 3.0825 23.28 3.0825 35.74C3.0825 36.44 3.6425 37 4.3425 37H12.6025C13.3025 37 14.0025 37.56 14.5625 38.82L41.5825 99.86C41.8625 100.42 43.1225 102.52 46.0625 102.52C48.7225 102.52 50.1225 100.42 50.4025 99.86L70.9825 53.8C70.9825 53.8 71.6825 51.98 72.5225 51.98C73.3625 51.98 74.0625 53.8 74.0625 53.8L94.5025 99.86C94.7825 100.42 96.0425 102.52 98.9825 102.52C101.643 102.52 103.043 100.42 103.323 99.86L130.482 38.82C131.042 37.56 131.743 37 132.443 37H143.503C144.203 37 144.763 36.44 144.763 35.74C144.763 23.28 147.283 3.25999 147.283 1.99999C147.283 0.73999 146.163 0.73999 146.023 0.73999Z" fill="#FF1C31"/>
<path d="M238.84 58.84C238.84 58.14 238.28 57.58 237.58 57.58H230.3C229.6 57.58 229.04 58.14 229.04 58.84C229.04 62.34 226.24 64.72 222.74 64.72H183.4C182.7 64.72 182.14 64.16 182.14 63.46V55.9C182.14 55.2 182.7 54.64 183.4 54.64H195.16C195.86 54.64 196.42 55.2 196.42 55.9V57.16C196.42 57.86 196.98 58.42 197.68 58.42H216.58C217.28 58.42 217.84 57.86 217.84 57.16V44.56C217.84 43.86 217.28 43.3 216.58 43.3H197.68C196.98 43.3 196.42 43.86 196.42 44.56V45.82C196.42 46.52 195.86 47.08 195.16 47.08H183.4C182.7 47.08 182.14 46.52 182.14 45.82V38.26C182.14 37.56 182.7 37 183.4 37H222.74C226.24 37 229.04 39.38 229.04 42.88C229.04 43.58 229.6 44.14 230.3 44.14H237.58C238.28 44.14 238.84 43.58 238.84 42.88V35.74C238.84 23.28 241.36 3.25999 241.36 1.99999C241.36 0.73999 240.24 0.73999 240.1 0.73999C231.98 0.73999 228.48 7.59999 223.58 7.59999C218.68 7.59999 220.08 3.54 217.42 3.54C214.62 3.54 216.16 7.59999 211.26 7.59999C207.76 7.59999 204.96 3.95999 197.26 3.95999C189.7 3.95999 186.62 7.59999 183.26 7.59999C178.36 7.59999 179.9 3.54 177.1 3.54C174.3 3.54 175.84 7.59999 170.94 7.59999C166.04 7.59999 162.82 0.73999 154.42 0.73999C154.14 0.73999 153.16 0.73999 153.16 1.99999C153.16 3.25999 155.68 23.28 155.68 35.74C155.68 36.44 156.24 37 156.94 37H170.8C171.5 37 172.06 37.56 172.06 38.26V63.46C172.06 64.16 171.5 64.72 170.8 64.72H156.94C156.24 64.72 155.68 65.28 155.68 65.98C155.68 78.44 153.16 98.46 153.16 99.72C153.16 100.98 154.14 100.98 154.42 100.98C162.54 100.98 166.04 94.12 170.94 94.12C175.84 94.12 174.3 98.18 177.1 98.18C179.9 98.18 178.36 94.12 183.26 94.12C186.76 94.12 189.7 97.76 197.12 97.76C204.82 97.76 207.76 94.12 211.26 94.12C216.16 94.12 214.62 98.18 217.42 98.18C220.08 98.18 218.68 94.12 223.58 94.12C228.48 94.12 231.7 100.98 240.1 100.98C240.24 100.98 241.36 100.98 241.36 99.72C241.36 98.46 238.84 78.44 238.84 65.98V58.84Z" fill="#FF1C31"/>
</svg>

<svg xmlns="http://www.w3.org/2000/svg" fill="none" viewBox="0 0 242 103"><path fill="#FF1C31" d="M146.023.74c-8.12 0-10.921 6.86-15.821 6.86s-3.359-4.06-6.159-4.06-1.26 4.06-6.16 4.06-7.42-6.86-15.82-6.86c-.28 0-1.26 0-1.26 1.26s2.52 21.28 2.52 33.74c0 .7.56 1.26 1.26 1.26h15.4c.56 0 .84.28.84.56 0 .42-.42 1.26-.42 1.26l-10.78 24.08c-.7 1.4-1.26 1.82-1.96 1.82h-12.46c-.7 0-1.26-.42-2.1-1.96l-10.64-23.94s-.42-.84-.42-1.26c0-.28.28-.56.84-.56h9.8c.7 0 1.26-.56 1.26-1.26 0-12.46 2.52-32.48 2.52-33.74 0-1.26-1.12-1.26-1.26-1.26-8.12 0-10.22 6.86-15.12 6.86-4.9 0-3.36-4.06-6.16-4.06-2.8 0-1.26 4.06-6.16 4.06S61.043.74 52.643.74c-.28 0-1.26 0-1.26 1.26s2.52 21.28 2.52 33.74c0 .7.56 1.26 1.26 1.26h11.9c.56 0 .84.28.84.56 0 .42-.42 1.26-.42 1.26L56.703 62.9c-.7 1.4-1.26 1.82-1.96 1.82h-12.46c-.7 0-1.26-.42-2.1-1.96l-10.64-23.94s-.42-.84-.42-1.26c0-.28.28-.56.84-.56h13.3c.7 0 1.26-.56 1.26-1.26 0-12.46 2.52-32.48 2.52-33.74 0-1.26-1.12-1.26-1.26-1.26-8.12 0-10.92 6.86-15.82 6.86s-3.36-4.06-6.16-4.06c-2.8 0-1.26 4.06-6.16 4.06S10.222.74 1.822.74C1.542.74.562.74.562 2s2.52 21.28 2.52 33.74c0 .7.56 1.26 1.26 1.26h8.26c.7 0 1.4.56 1.96 1.82l27.02 61.04c.28.56 1.54 2.66 4.48 2.66 2.66 0 4.06-2.1 4.34-2.66l20.58-46.06s.7-1.82 1.54-1.82c.84 0 1.54 1.82 1.54 1.82l20.44 46.06c.28.56 1.54 2.66 4.48 2.66 2.66 0 4.06-2.1 4.34-2.66l27.159-61.04c.56-1.26 1.261-1.82 1.961-1.82h11.06c.7 0 1.26-.56 1.26-1.26 0-12.46 2.52-32.48 2.52-33.74 0-1.26-1.12-1.26-1.26-1.26zM238.84 58.84c0-.7-.56-1.26-1.26-1.26h-7.28c-.7 0-1.26.56-1.26 1.26 0 3.5-2.8 5.88-6.3 5.88H183.4c-.7 0-1.26-.56-1.26-1.26V55.9c0-.7.56-1.26 1.26-1.26h11.76c.7 0 1.26.56 1.26 1.26v1.26c0 .7.56 1.26 1.26 1.26h18.9c.7 0 1.26-.56 1.26-1.26v-12.6c0-.7-.56-1.26-1.26-1.26h-18.9c-.7 0-1.26.56-1.26 1.26v1.26c0 .7-.56 1.26-1.26 1.26H183.4c-.7 0-1.26-.56-1.26-1.26v-7.56c0-.7.56-1.26 1.26-1.26h39.34c3.5 0 6.3 2.38 6.3 5.88 0 .7.56 1.26 1.26 1.26h7.28c.7 0 1.26-.56 1.26-1.26v-7.14c0-12.46 2.52-32.48 2.52-33.74 0-1.26-1.12-1.26-1.26-1.26-8.12 0-11.62 6.86-16.52 6.86s-3.5-4.06-6.16-4.06c-2.8 0-1.26 4.06-6.16 4.06-3.5 0-6.3-3.64-14-3.64-7.56 0-10.64 3.64-14 3.64-4.9 0-3.36-4.06-6.16-4.06-2.8 0-1.26 4.06-6.16 4.06S162.82.74 154.42.74c-.28 0-1.26 0-1.26 1.26s2.52 21.28 2.52 33.74c0 .7.56 1.26 1.26 1.26h13.86c.7 0 1.26.56 1.26 1.26v25.2c0 .7-.56 1.26-1.26 1.26h-13.86c-.7 0-1.26.56-1.26 1.26 0 12.46-2.52 32.48-2.52 33.74 0 1.26.98 1.26 1.26 1.26 8.12 0 11.62-6.86 16.52-6.86s3.36 4.06 6.16 4.06c2.8 0 1.26-4.06 6.16-4.06 3.5 0 6.44 3.64 13.86 3.64 7.7 0 10.64-3.64 14.14-3.64 4.9 0 3.36 4.06 6.16 4.06 2.66 0 1.26-4.06 6.16-4.06s8.12 6.86 16.52 6.86c.14 0 1.26 0 1.26-1.26s-2.52-21.28-2.52-33.74v-7.14z"/></svg>
